Obsidian-SemiLight/actions/16s/format-align-vertical-top.svg

<svg viewBox="0 0 16 16" xmlns="http://www.w3.org/2000/svg"><path d="m2 2v1h12v-1zm6 2-3 3h2v7h2v-7h2z" fill="#4d4d4d"/></svg>

<svg xmlns="http://www.w3.org/2000/svg" viewBox="0 0 16 16">
  <defs id="defs3051">
    <style type="text/css" id="current-color-scheme">
      .ColorScheme-Text {
        color:#4d4d4d;
      }
      </style>
  </defs>
 <path style="fill:currentColor;fill-opacity:1;stroke:none" 
     d="M 2 2 L 2 3 L 14 3 L 14 2 L 2 2 z M 8 4 L 5 7 L 7 7 L 7 14 L 9 14 L 9 7 L 11 7 L 8 4 z "
     class="ColorScheme-Text"
     />
</svg>
